src/images_karasa_jaga_svg/cmd/32/arrowshapes.pentagon-right.svg

<svg height="32" viewBox="0 0 32 32" width="32" xmlns="http://www.w3.org/2000/svg" xmlns:xlink="http://www.w3.org/1999/xlink"><linearGradient id="a" gradientTransform="matrix(0 -.40973888 .24845378 0 18.258463 81.861381)" gradientUnits="userSpaceOnUse" x1="-83.317986" x2="170.5022" y1="151.90567" y2="151.90567"><stop offset="0" stop-color="#fff"/><stop offset=".5" stop-color="#fff"/><stop offset=".84615386" stop-color="#f1f1f1"/><stop offset=".92307693" stop-color="#eaeaea"/><stop offset="1" stop-color="#dfdfdf"/></linearGradient><linearGradient id="b" gradientUnits="userSpaceOnUse" x1="8.477222" x2="127.7877" y1="64.102066" y2="64"><stop offset="0" stop-color="#7c9fcf"/><stop offset=".5" stop-color="#7c9ece"/><stop offset="1" stop-color="#7b9dcf"/></linearGradient><g fill-rule="evenodd" transform="scale(.25)"><path d="m4 8.0058594c-2.2058614.0001003-3.99404028 1.7882792-3.99414062 3.9941406v104c.00010067 2.20586 1.78827942 3.99404 3.99414062 3.99414h105.58594c1.80067.00021 3.37885-1.20443 3.85351-2.94141l14.20703-51.999996c.1883-.689192.1883-1.416276 0-2.105468l-14.20703-52c-.47466-1.7369811-2.05284-2.9416149-3.85351-2.9414066h-66.687502-17.890626z" fill="url(#b)"/><path d="m4 116h105.58516l14.20742-52-14.20742-52h-66.687485-17.889688-21.007987z" fill="url(#a)"/></g></svg>

<?xml version="1.0" encoding="UTF-8" standalone="no"?>
<!-- Created with Inkscape (http://www.inkscape.org/) -->

<svg
   xmlns:dc="http://purl.org/dc/elements/1.1/"
   xmlns:cc="http://creativecommons.org/ns#"
   xmlns:rdf="http://www.w3.org/1999/02/22-rdf-syntax-ns#"
   xmlns:svg="http://www.w3.org/2000/svg"
   xmlns="http://www.w3.org/2000/svg"
   xmlns:xlink="http://www.w3.org/1999/xlink"
   xmlns:sodipodi="http://sodipodi.sourceforge.net/DTD/sodipodi-0.dtd"
   xmlns:inkscape="http://www.inkscape.org/namespaces/inkscape"
   version="1.1"
   id="svg2"
   width="128"
   height="128"
   viewBox="0 0 128 128"
   sodipodi:docname="arrowshapes.pentagon-right.svg"
   inkscape:export-filename="/home/rizmut/Dokumen/Rizmut/Github/libreoffice-style-karasa-jaga/build/images_karasa_jaga/cmd/32/arrowshapes.pentagon-right.png"
   inkscape:export-xdpi="24"
   inkscape:export-ydpi="24"
   inkscape:version="0.92.3 (unknown)">
  <metadata
     id="metadata8">
    <rdf:RDF>
      <cc:Work
         rdf:about="">
        <dc:format>image/svg+xml</dc:format>
        <dc:type
           rdf:resource="http://purl.org/dc/dcmitype/StillImage" />
        <dc:title></dc:title>
      </cc:Work>
    </rdf:RDF>
  </metadata>
  <defs
     id="defs6">
    <inkscape:perspective
       id="perspective27"
       inkscape:persp3d-origin="64 : 42.666667 : 1"
       inkscape:vp_z="128 : 64 : 1"
       inkscape:vp_y="0 : 1000 : 0"
       inkscape:vp_x="0 : 64 : 1"
       sodipodi:type="inkscape:persp3d" />
    <linearGradient
       id="linearGradient3369">
      <stop
         id="stop3372"
         offset="0"
         style="stop-color:#ffffff;stop-opacity:1;" />
      <stop
         style="stop-color:#ffffff;stop-opacity:1;"
         offset="0.5"
         id="stop3374" />
      <stop
         style="stop-color:#f1f1f1;stop-opacity:1;"
         offset="0.84615386"
         id="stop3376" />
      <stop
         id="stop3378"
         offset="0.92307693"
         style="stop-color:#eaeaea;stop-opacity:1;" />
      <stop
         id="stop3384"
         offset="1"
         style="stop-color:#dfdfdf;stop-opacity:1;" />
    </linearGradient>
    <linearGradient
       id="linearGradient7422">
      <stop
         style="stop-color:#7c9fcf;stop-opacity:1"
         offset="0"
         id="stop7424" />
      <stop
         id="stop5348"
         offset="0.5"
         style="stop-color:#7c9ece;stop-opacity:1" />
      <stop
         id="stop7426"
         offset="1"
         style="stop-color:#7b9dcf;stop-opacity:1" />
    </linearGradient>
    <linearGradient
       y2="388.95178"
       x2="399.77466"
       y1="1324.7792"
       x1="405.94968"
       gradientTransform="matrix(0.08097132,0,0,0.07807154,182.74486,-6.9021226)"
       gradientUnits="userSpaceOnUse"
       id="linearGradient2330"
       xlink:href="#linearGradient7422"
       inkscape:collect="always" />
    <linearGradient
       y2="151.90567"
       x2="170.5022"
       y1="151.90567"
       x1="-83.317986"
       gradientTransform="matrix(0,-0.40973888,0.24845378,0,18.258463,81.861381)"
       gradientUnits="userSpaceOnUse"
       id="linearGradient2360"
       xlink:href="#linearGradient3369"
       inkscape:collect="always" />
    <linearGradient
       inkscape:collect="always"
       xlink:href="#linearGradient7422"
       id="linearGradient844"
       x1="0.005859375"
       y1="64"
       x2="127.7877"
       y2="64"
       gradientUnits="userSpaceOnUse" />
  </defs>
  <sodipodi:namedview
     pagecolor="#ffffff"
     bordercolor="#666666"
     borderopacity="1"
     objecttolerance="10"
     gridtolerance="10"
     guidetolerance="10"
     inkscape:pageopacity="0"
     inkscape:pageshadow="2"
     inkscape:window-width="1366"
     inkscape:window-height="706"
     id="namedview4"
     showgrid="true"
     inkscape:snap-page="true"
     inkscape:snap-global="false"
     inkscape:zoom="2.4494288"
     inkscape:cx="-62.867241"
     inkscape:cy="80.353319"
     inkscape:window-x="0"
     inkscape:window-y="0"
     inkscape:window-maximized="1"
     inkscape:current-layer="svg2"
     showguides="false">
    <inkscape:grid
       type="xygrid"
       id="grid837"
       spacingx="4"
       spacingy="4"
       empspacing="2" />
  </sodipodi:namedview>
  <path
     style="fill:url(#linearGradient844);fill-opacity:1;fill-rule:evenodd;stroke:none;stroke-width:4.47213125;stroke-linecap:round;stroke-linejoin:round;stroke-miterlimit:4;stroke-dasharray:none;stroke-opacity:1"
     d="M 4,8.0058594 A 3.9943223,3.9943223 0 0 0 0.00585938,12 V 116 A 3.9943223,3.9943223 0 0 0 4,119.99414 h 105.58594 a 3.9943223,3.9943223 0 0 0 3.85351,-2.94141 l 14.20703,-51.999996 a 3.9943223,3.9943223 0 0 0 0,-2.105468 l -14.20703,-52 A 3.9943223,3.9943223 0 0 0 109.58594,8.0058594 H 42.898438 25.007812 Z"
     id="path834" />
  <path
     inkscape:connector-curvature="0"
     id="rect2326"
     d="M 4,116 H 109.58516 L 123.79258,64 109.58516,12 H 42.897675 25.007987 4 Z"
     style="fill:url(#linearGradient2360);fill-opacity:1;fill-rule:evenodd;stroke:none;stroke-width:4.47213125;stroke-linecap:round;stroke-linejoin:round;stroke-miterlimit:4;stroke-dasharray:none;stroke-opacity:1"
     sodipodi:nodetypes="cccccccc" />
  <g
     transform="matrix(0,0.57912965,0.57912965,0,27.114229,-2.9133545)"
     inkscape:label="Livello 1"
     id="g1544" />
  <g
     transform="matrix(0,-0.57912965,0.57912965,0,27.114229,130.91165)"
     inkscape:label="Livello 1"
     id="g1599" />
</svg>
